images/ib-ico-21.svg

<?xml version="1.0" encoding="UTF-8" standalone="no"?>
<svg width="86px" height="86px" viewBox="0 0 86 86" version="1.1" xmlns="http://www.w3.org/2000/svg" xmlns:xlink="http://www.w3.org/1999/xlink" xmlns:sketch="http://www.bohemiancoding.com/sketch/ns">
    <!-- Generator: Sketch 3.3.3 (12081) - http://www.bohemiancoding.com/sketch -->
    <title>ib-ico-2</title>
    <desc>Created with Sketch.</desc>
    <defs>
        <linearGradient x1="49.08522%" y1="50%" x2="49.3895484%" y2="49.2577567%" id="linearGradient-1">
            <stop stop-color="#3498DB" offset="0%"></stop>
            <stop stop-color="#1A699C" offset="100%"></stop>
        </linearGradient>
    </defs>
    <g id="Page-1" stroke="none" stroke-width="1" fill="none" fill-rule="evenodd" sketch:type="MSPage">
        <g id="ib-ico-2" sketch:type="MSArtboardGroup" fill="url(#linearGradient-1)">
            <g id="Group" sketch:type="MSLayerGroup" transform="translate(19.000000, 7.000000)">
                <path d="M48.9222222,25.0340426 C48.9222222,11.5723404 38.1111111,0.629787234 24.8111111,0.629787234 C11.5111111,0.629787234 0.7,11.5723404 0.7,25.0340426 C0.7,34.8744681 6.53333333,43.7702128 15.4777778,47.5489362 C15.8666667,47.706383 16.2555556,47.7851064 16.6444444,47.7851064 C17.8111111,47.7851064 18.9,47.0765957 19.3666667,45.8957447 C19.9888889,44.3212766 19.2888889,42.5893617 17.7333333,41.9595745 C10.9666667,39.1255319 6.61111111,32.4340426 6.61111111,25.0340426 C6.61111111,14.8787234 14.7777778,6.69148936 24.7333333,6.69148936 C34.7666667,6.69148936 42.8555556,14.9574468 42.8555556,25.0340426 C42.8555556,30.387234 40.6,35.4255319 36.5555556,38.8893617 C36.4,38.9680851 36.3222222,39.1255319 36.1666667,39.2829787 C35.7,39.912766 31.9666667,44.6361702 30.9555556,49.9893617 L17.8888889,52.3510638 C16.2555556,52.6659574 15.1666667,54.2404255 15.4777778,55.8148936 C15.7111111,57.3106383 16.9555556,58.3340426 18.4333333,58.3340426 C18.5888889,58.3340426 18.8222222,58.3340426 18.9777778,58.2553191 L34.2222222,55.5 C35.6222222,55.2638298 36.7111111,54.0042553 36.7111111,52.5085106 C36.7111111,49.0446809 39.5111111,44.7148936 40.6777778,43.1404255 C45.9666667,38.6531915 48.9222222,32.0404255 48.9222222,25.0340426 Z M32.2,57.8617021 L19.2111111,60.2234043 C17.5777778,60.5382979 16.4888889,62.112766 16.8,63.687234 C17.0333333,65.1829787 18.2777778,66.206383 19.7555556,66.206383 C19.9111111,66.206383 20.1444444,66.206383 20.3,66.1276596 L33.2888889,63.7659574 C34.9222222,63.4510638 36.0111111,61.8765957 35.7,60.3021277 C35.3888889,58.6489362 33.8333333,57.5468085 32.2,57.8617021 Z M30.4111111,65.9702128 L21,67.7021277 C19.3666667,68.0170213 18.2777778,69.5914894 18.5888889,71.1659574 C18.8222222,72.6617021 20.0666667,73.6851064 21.5444444,73.6851064 C21.7,73.6851064 21.9333333,73.6851064 22.0888889,73.606383 L31.5,71.8744681 C33.1333333,71.5595745 34.2222222,69.9851064 33.9111111,68.4106383 C33.6,66.7574468 32.0444444,65.6553191 30.4111111,65.9702128 Z" id="Shape" sketch:type="MSShapeGroup"></path>
            </g>
        </g>
    </g>
</svg>

<svg width="86" height="86" xmlns="http://www.w3.org/2000/svg"><defs><linearGradient x1="49.085%" y1="50%" x2="49.39%" y2="49.258%" id="linearGradient-1"><stop stop-color="#3498DB" offset="0%"/><stop stop-color="#1A699C" offset="100%"/></linearGradient></defs><g id="Page-1" stroke="none" stroke-width="1" fill="none" fill-rule="evenodd"><g id="ib-ico-2" fill="url(#linearGradient-1)"><g id="Group" transform="translate(19 7)"><path d="M48.922 25.034C48.922 11.572 38.112.63 24.812.63 11.511.63.7 11.572.7 25.034c0 9.84 5.833 18.736 14.778 22.515.389.157.778.236 1.166.236 1.167 0 2.256-.708 2.723-1.89.622-1.574-.078-3.306-1.634-3.935-6.766-2.834-11.122-9.526-11.122-16.926 0-10.155 8.167-18.343 18.122-18.343 10.034 0 18.123 8.266 18.123 18.343 0 5.353-2.256 10.392-6.3 13.855-.156.08-.234.237-.39.394-.466.63-4.2 5.353-5.21 10.706l-13.067 2.362c-1.633.315-2.722 1.89-2.411 3.464.233 1.496 1.478 2.519 2.955 2.519.156 0 .39 0 .545-.079L34.222 55.5c1.4-.236 2.49-1.496 2.49-2.991 0-3.464 2.8-7.794 3.966-9.369 5.289-4.487 8.244-11.1 8.244-18.106zM32.2 57.862l-12.989 2.361c-1.633.315-2.722 1.89-2.411 3.464.233 1.496 1.478 2.52 2.956 2.52.155 0 .388 0 .544-.08l12.989-2.361c1.633-.315 2.722-1.89 2.411-3.464-.311-1.653-1.867-2.755-3.5-2.44zm-1.789 8.108L21 67.702c-1.633.315-2.722 1.89-2.411 3.464.233 1.496 1.478 2.52 2.955 2.52.156 0 .39 0 .545-.08l9.411-1.732c1.633-.314 2.722-1.889 2.411-3.463-.311-1.654-1.867-2.756-3.5-2.44z" id="Shape"/></g></g></g></svg>
